!!!!SEGMENT: pl-cz--iii-487--003_went-johann-nepomuk--partita-es-menuetto.krn
!!!cenid: 18xx:2484
!!!COM: Went, Johann Nepomuk
!!!COM-rismid: pe30003326
!!!CDT: 1745-1801
!!!CNT: Czech
!!!OTL: Partita Es - Menuetto
!!!PDT:
!!!AGN: Secular; Partita
!!!SMS-siglum: PL-CZ
!!!SMS-shelfmark: III-487
!!!SMS-shelfwork: 001-003 M
!!!SMS-variant:
!!!SMS-altvar:
!!!NIFC-rismid: 300000863
!!!URL-scan: http://repozytorium.nifc.pl/skany/pl-cz-nut--iii-487
!!!ONB-nifc: UWAGA: części Partity: 1. Allegro assai, 2. Andante, 3. Menuetto, 4. Presto
**kern	**kern	**dynam	**kern	**dynam	**kern	**dynam	**kern	**dynam
*part5	*part4	*part4	*part3	*part3	*part2	*part2	*part1	*part1
*staff5	*staff4	*	*staff3	*	*staff2	*	*staff1	*
*group2	*group2	*	*group1	*	*group1	*	*group1	*
*I"Corno Secondo in Dis	*I"Corno Primo in Dis	*	*I"Fagotti Due	*	*I"Clarinetto Secondo	*	*I"Clarinetto Primo	*
*I'cor 2 in E|b	*I'cor 1 in E|b	*	*I'fag	*	*I'cl 2	*	*I'cl 1	*
*>[A,A,B,B,C,C,D,D,A,A,B,B]	*>[A,A,B,B,C,C,D,D,A,A,B,B]	*>[A,A,B,B,C,C,D,D,A,A,B,B]	*>[A,A,B,B,C,C,D,D,A,A,B,B]	*>[A,A,B,B,C,C,D,D,A,A,B,B]	*>[A,A,B,B,C,C,D,D,A,A,B,B]	*>[A,A,B,B,C,C,D,D,A,A,B,B]	*>[A,A,B,B,C,C,D,D,A,A,B,B]	*>[A,A,B,B,C,C,D,D,A,A,B,B]
*>A	*>A	*>A	*>A	*>A	*>A	*>A	*>A	*>A
*clefG2	*clefG2	*	*clefF4	*	*clefG2	*	*clefG2	*
*ITrd5c9	*ITrd5c9	*	*	*	*ITrd1c2	*	*ITrd1c2	*
*k[b-e-a-]	*k[b-e-a-]	*	*k[a-e-b-]	*	*k[b-e-a-]	*	*k[b-e-a-]	*
*E-:	*E-:	*	*E-:	*	*E-:	*	*E-:	*
*M3/4	*M3/4	*	*M3/4	*	*M3/4	*	*M3/4	*
4B-/	4B-/	.	4BB-/	.	4B-/	.	4b-\	.
=1	=1	=1	=1	=1	=1	=1	=1	=1
4E-/	4e-\	.	4E-\	.	4e-/	.	4ee-\	.
4G/	4e-\	.	4EE-/	.	4e-/	.	4ee-\	.
4B-/	4e-\	.	4E-\	.	4e-/	.	4ee-\	.
=2	=2	=2	=2	=2	=2	=2	=2	=2
4E-/	4e-\	.	4.EE-/	.	4.e-/	.	4.ee-\	.
4r	4r	.	.	.	.	.	.	.
.	.	.	8BB-/L	.	8B-/L	.	8b-\L	.
4BB-/	4B-/	.	8C/	.	8c/	.	8cc\	.
.	.	.	8D/J	.	8d/J	.	8dd\J	.
=3	=3	=3	=3	=3	=3	=3	=3	=3
*	*2\right	*	*	*	*	*	*	*
4E-/	2e-\	.	4E-\	.	4e-/	.	4ee-\	.
4r	.	.	4C\	.	4c/	.	4cc\	.
4E-/	4f\	.	4F\	.	4c/	.	4a\	.
=4	=4	=4	=4	=4	=4	=4	=4	=4
*	*	*	*	*	*	*	*2\right	*
!	!	!	!	!	!	!	!	!LO:HP:t=Cres
2B-/	2f\	.	4BB-/	.	2B-/	.	(2b-\	<
.	.	.	4B-\	.	.	.	.	.
4r	4r	.	4r	.	4r	.	4bX\)	.
!LO:LB:g=original	!	!	!LO:LB:g=original	!	!	!	!	!
=5	=5	=5	=5	=5	=5	=5	=5	=5
!LO:TX:a:t=4	!LO:TX:a:t=3	!	!	!	!	!	!	!LO:DY:t=for
!LO:N:vis=00	!LO:N:vis=0	!	!	!	!	!	!	!
0.r	1.r	.	2AA-/	f	2.c/	.	8cc/L	f
.	.	.	.	.	.	.	8a-/	.
.	.	.	.	.	.	.	8g/	.
.	.	.	.	.	.	.	8f/	.
.	.	.	4AA-/	p	.	.	8eX/	.
.	.	.	.	.	.	.	8f/J	.
!	!	!	!	!	!	!	!LO:LB:g=original	!
=6	=6	=6	=6	=6	=6	=6	=6	=6
.	.	.	.	.	.	.	16qqeX/	.
.	.	.	4AA-/	.	4c/	.	4f/	.
.	.	.	4AA-/	.	4c/	.	4f/	.
.	.	.	4AAn/	.	4c/	.	4f/	.
=7	=7	=7	=7	=7	=7	=7	=7	=7
.	2.r	.	4BB-/	.	2d/	.	2f/	.
.	.	.	4r	.	.	.	.	.
.	.	.	4r	.	4r	.	4r	.
!	!	!	!	!	!LO:LB:g=original	!	!	!
=8	=8	=8	=8	=8	=8	=8	=8	=8
!	!	!	!	!	!	!LO:DY:a	!	!
.	4f\	p	4BB-/	f	4d/	p	4a-/	.
.	4f\	.	4BB-/	p	4d/	.	4a-/	.
.	4f\	.	4BBn/	.	4d/	.	4a-/	.
=9	=9	=9	=9	=9	=9	=9	=9	=9
4r	4f\	.	4BB-X/	.	4d/	.	4a-/	.
!	!LO:LB:g=original	!	!	!	!	!	!	!
4r	4r	.	4r	.	4r	.	4r	.
4B-/	4f\	.	4BB-/	.	4A-/	.	4f/	.
=10	=10	=10	=10	=10	=10	=10	=10	=10
4e-\	4e-\	.	4E-\	.	4G/	.	4e-/	.
!	!	!	!LO:TX:a:t=10	!	!LO:TX:a:t=10	!	!LO:TX:a:t=10	!
4E-/	4r	.	4EE-/	.	4r	.	4r	.
=:|!|:	=:|!|:	=:|!|:	=:|!|:	=:|!|:	=:|!|:	=:|!|:	=:|!|:	=:|!|:
*>B	*>B	*>B	*>B	*>B	*>B	*>B	*>B	*>B
4r	4B-/	.	4r	.	4b-\	.	4b-\	.
=11	=11	=11	=11	=11	=11	=11	=11	=11
*	*	*	*	*	*2\right	*	*	*
2B-/	2f\	.	2BB-/	f	2dd\	.	(8ff\L	.
.	.	.	.	.	.	.	8dd\	.
.	.	.	.	.	.	.	8cc\	.
.	.	.	.	.	.	.	8b-\	.
4B-/	4f\	.	4D\	p	4ff\	.	8aJ\)	.
!	!	!	!	!	!	!	!LO:N:vis=4	!
.	.	.	.	.	.	.	8b-\	.
!	!	!	!	!	!	!	!LO:LB:g=original	!
=12	=12	=12	=12	=12	=12	=12	=12	=12
*2\right	*	*	*	*	*	*	*	*
2e-\	2g\	.	4E-\	.	4ee-\	.	4gg\	.
.	.	.	4EE-/	.	8g\L	.	8b-\L	.
.	.	.	.	.	8b-\	.	8ee-\	.
4e-\	4e-\	.	4E-\	.	8ee-\	.	8gg\	.
.	.	.	.	.	8gg\J	.	8bb-\J	.
!	!	!	!LO:LB:g=original	!	!	!	!	!
=13	=13	=13	=13	=13	=13	=13	=13	=13
.	.	.	.	.	.	.	(16qqbb-/	.
4B-/	4f|\	.	4BB-/	.	4ff\	.	4aa-\)	.
4r	(4a-\	.	4D\	.	8ff\L	.	8aa-\L	.
.	.	.	.	.	8dd\	.	8ff\	.
4e-\	4g\)	.	4E-\	.	8ee-\	.	(8bb-\	.
.	.	.	.	.	8g\J	.	8ee-\J)	.
!	!	!	!	!	!LO:LB:g=original	!	!	!
=14	=14	=14	=14	=14	=14	=14	=14	=14
4B-/	4f\	.	4B-\	.	2.f/	.	8ee-\L	.
.	.	.	.	.	.	.	8dd\	.
4r	4r	.	4BB-/	.	.	.	8cc\	.
.	.	.	.	.	.	.	8b-\J	.
4r	4r	.	4GG/	.	.	.	4bX\	.
=15	=15	=15	=15	=15	=15	=15	=15	=15
!LO:TX:a:t=4	!LO:TX:a:t=1	!	!	!	!	!	!	!LO:HP:t=Cres
!LO:N:vis=00	!	!	!	!	!	!	!	!
0.r	2.r	.	2AA-/	.	2.c/	.	8cc/L	<
.	.	.	.	.	.	.	8a-/	.
.	.	.	.	.	.	.	8g/	.
.	.	.	.	.	.	.	8f/	.
!	!	!	!	!	!	!	!	!LO:DY:t=for
.	.	.	4AA-/	.	.	.	8eX/	f
.	.	.	.	.	.	.	8f/J	.
=16	=16	=16	=16	=16	=16	=16	=16	=16
!	!	!	!	!	!	!	!	!LO:HP:t=Cres
.	.	.	.	.	.	.	(16qqeX/	<
.	4f\	.	4AA-/	.	4c/	.	4f/)	.
.	.	.	.	.	.	.	(16qqe/	.
.	4f\	.	4AA-/	.	4c/	.	4f/)	.
.	.	.	.	.	.	.	(16qqe/	.
.	4f\	.	4AAn/	.	4c/	.	4f/)	.
!	!	!	!	!	!	!	!LO:LB:g=original	!
=17	=17	=17	=17	=17	=17	=17	=17	=17
.	2f\	.	2BB-/	.	2d/	.	2f/	.
.	4r	.	4r	.	4r	.	4r	.
!	!LO:LB:g=original	!	!	!	!	!	!	!
=18	=18	=18	=18	=18	=18	=18	=18	=18
.	(4f'\	p	4BB-/	.	4d/	.	4a-/	.
.	4f'\	.	4BB-/	.	4d/	.	4a-/	.
.	4f'\)	.	4BBn/	.	4d/	.	4a-/	.
!LO:LB:g=original	!	!	!	!	!	!	!	!
=19	=19	=19	=19	=19	=19	=19	=19	=19
4r	4f\	.	4BB-X/	.	4d/	.	4a-/	.
4r	4r	.	4r	.	4r	.	4r	.
4B-/	4f\	.	4BB-/	.	4f/	.	8f/L	.
.	.	.	.	.	.	.	8d/J	.
=20	=20	=20	=20	=20	=20	=20	=20	=20
4e-\	4e-\	.	4E-\	.	4e-/	.	4e-/	.
!	!	!	!	!	!LO:TX:a:t=10	!	!LO:TX:a:t=10	!
4E-/	4r	.	4EE-/	.	4r	.	4r	.
!	!LO:LB:g=original	!	!LO:LB:g=original	!	!LO:LB:g=original	!	!LO:LB:g=original	!
=:|!	=:|!	=:|!	=:|!	=:|!	=:|!	=:|!	=:|!	=:|!
*>C	*>C	*>C	*>C	*>C	*>C	*>C	*>C	*>C
*k[b-e-a-]	*k[b-e-a-]	*	*k[a-e-b-]	*	*k[b-e-a-]	*	*k[b-e-a-]	*
*M3/4	*M3/4	*	*M3/4	*	*M3/4	*	*M3/4	*
!LO:TX:a:t=Trio	!LO:TX:a:t=Trio	!	!LO:TX:a:t=Trio	!	!LO:TX:a:t=Trio	!	!LO:TX:a:t=Trio	!
4B-/	4e-\	.	4r	.	4B-/	.	4r	.
=21	=21	=21	=21	=21	=21	=21	=21	=21
*Xtuplet	*	*	*	*	*	*	*	*
!	!	!	!	!	!	!	!LO:TX:a:t=3	!
!	!	!	!	!	!	!	!LO:N:vis=0	!
12E-/L	(2g\	.	4r	.	2e-/	.	1.r	.
12G/	.	.	.	.	.	.	.	.
12B-/J	.	.	.	.	.	.	.	.
12E-/L	.	.	4E-\	.	.	.	.	.
12G/	.	.	.	.	.	.	.	.
12B-/J	.	.	.	.	.	.	.	.
8BB-/L	4a-\)	.	4D\	.	4f/	.	.	.
8B-/J	.	.	.	.	.	.	.	.
=22	=22	=22	=22	=22	=22	=22	=22	=22
12E-/L	(2b-\	.	4E-\	.	2g/	.	.	.
12G/	.	.	.	.	.	.	.	.
12B-/J	.	.	.	.	.	.	.	.
12E-/L	.	.	4r	.	.	.	.	.
12G/	.	.	.	.	.	.	.	.
12B-/J	.	.	.	.	.	.	.	.
8BB-/L	4a-\)	.	4E-\	.	4f/	.	.	.
8B-/J	.	.	.	.	.	.	.	.
!LO:LB:g=original	!	!	!	!	!	!	!	!
=23	=23	=23	=23	=23	=23	=23	=23	=23
12E-/L	4g\	.	4E-\	.	4e-/	.	2.r	.
12G/	.	.	.	.	.	.	.	.
12B-/J	.	.	.	.	.	.	.	.
12E-/L	4e-\	.	4BB-/	.	4G/	.	.	.
12G/	.	.	.	.	.	.	.	.
12B-/J	.	.	.	.	.	.	.	.
12E-/L	4e-\	.	4GG/	.	4G/	.	.	.
12G/	.	.	.	.	.	.	.	.
12B-/J	.	.	.	.	.	.	.	.
=24	=24	=24	=24	=24	=24	=24	=24	=24
12b-\L	4e-\	.	4EE-/	.	4G/	.	4r	.
12g\	.	.	.	.	.	.	.	.
12e-\J	.	.	.	.	.	.	.	.
12g\L	4r	.	4r	.	4r	.	4r	.
12e-\	.	.	.	.	.	.	.	.
12B-\J	.	.	.	.	.	.	.	.
12e-/L	4r	.	4BB-/	.	4r	.	4b-\	.
12B-/	.	.	.	.	.	.	.	.
12F/J	.	.	.	.	.	.	.	.
=25	=25	=25	=25	=25	=25	=25	=25	=25
2E-/	2c/	.	8.E-\L	.	2ee-\	.	2gg\	.
.	.	.	16F\Jk	.	.	.	.	.
.	.	.	8.G\L	.	.	.	.	.
.	.	.	16A-\Jk	.	.	.	.	.
4r	4B-/	.	4B-\	.	4dd\	.	8ff\	.
.	.	.	.	.	.	.	8r	.
!	!	!	!LO:LB:g=original	!	!LO:LB:g=original	!	!	!
=26	=26	=26	=26	=26	=26	=26	=26	=26
!LO:TX:a:t=1	!	!	!	!	!	!	!	!
2.r	2e-\	.	(4F\	.	2cc\	.	2aa\	.
.	.	.	4F#X\	.	.	.	.	.
!	!LO:SIC:v:s=4g\	!	!	!	!	!	!	!
.	4f\	.	4G\)	.	8cc\	.	8bb-\	.
.	.	.	.	.	8r	.	8r	.
=27	=27	=27	=27	=27	=27	=27	=27	=27
4r	4r	.	4E-\	.	4cc\	.	(4gg\	.
4f\	4f\	.	4F\	.	4b-\	.	8ff\)	.
!	!	!	!	!	!	!	!LO:LB:g=original	!
.	.	.	.	.	.	.	4r	.
4f\	4f\	.	4FF/	.	4c/	.	.	.
.	.	.	.	.	.	.	8a\	.
!	!LO:LB:g=original	!	!	!	!	!	!	!
=28	=28	=28	=28	=28	=28	=28	=28	=28
2B-/	2f\	.	4BB-/	.	4d/	.	4b-\	.
!	!	!	!LO:TX:a:t=8	!	!LO:TX:a:t=8	!	!LO:TX:a:t=8	!
.	.	.	4BBB-/	.	4r	.	4r	.
=:|!|:	=:|!|:	=:|!|:	=:|!|:	=:|!|:	=:|!|:	=:|!|:	=:|!|:	=:|!|:
*>D	*>D	*>D	*>D	*>D	*>D	*>D	*>D	*>D
!	!LO:TX:t=P:problem:brak pauzy	!	!	!	!	!	!	!
4r	4ryy	.	4r	.	4r	.	4b-\	.
=29	=29	=29	=29	=29	=29	=29	=29	=29
!LO:TX:a:t=3	!	!	!	!	!	!	!	!
!LO:N:vis=0	!	!	!	!	!	!	!	!
1.r	2.B-/	.	4r	.	(2f/	.	(2b-\	.
.	.	.	4BB-/	.	.	.	.	.
.	.	.	4B-\	.	4g/)	.	4ff\)	.
=30	=30	=30	=30	=30	=30	=30	=30	=30
.	.	.	.	.	16qqa-/	.	16qqff/	.
.	2.B-/	.	4r	.	4g/	.	4ee-\	.
.	.	.	4BB-/	.	8f/	.	8dd\	.
.	.	.	.	.	8r	.	8r	.
.	.	.	4BBB-/	.	4b-\	.	4b-\	.
=31	=31	=31	=31	=31	=31	=31	=31	=31
2.r	2.B-/	.	4r	.	2dd\	.	2ff\	.
.	.	.	4BB-/	.	.	.	.	.
.	.	.	4B-\	.	4ff\	.	4aa-X\	.
!	!	!	!	!	!LO:LB:g=original	!	!	!
=32	=32	=32	=32	=32	=32	=32	=32	=32
!	!	!	!	!	!LO:SIC:v:s=4ee\	!	!	!
4r	4B-/	.	4BB-/	.	4dd\	.	(4gg\	.
!	!	!	!	!	!LO:SIC:v:s=8dd\	!	!	!
4r	8B-/	.	8B-\L	.	8cc\	.	8ff\)	.
.	8r	.	8A-\	.	8r	.	8r	.
4B-/	4B-/	.	8G\	.	4b-\	.	4ee-\	.
.	.	.	8F\J	.	.	.	.	.
!LO:LB:g=original	!	!	!	!	!	!	!	!
=33	=33	=33	=33	=33	=33	=33	=33	=33
12E-/L	2g\	.	4r	.	2ee-\	.	2gg\	.
12G/	.	.	.	.	.	.	.	.
12B-/J	.	.	.	.	.	.	.	.
12E-/L	.	.	4E-\	.	.	.	.	.
12G/	.	.	.	.	.	.	.	.
12B-/J	.	.	.	.	.	.	.	.
8BB-/L	4f\	.	4D\	.	4ff\	.	4aa-\	.
8B-/J	.	.	.	.	.	.	.	.
!	!	!	!	!	!	!	!LO:LB:g=original	!
=34	=34	=34	=34	=34	=34	=34	=34	=34
12E-/L	2e-\	.	4E-\	.	2gg\	.	2bb-\	.
12G/	.	.	.	.	.	.	.	.
12B-/J	.	.	.	.	.	.	.	.
12E-/L	.	.	4r	.	.	.	.	.
12G/	.	.	.	.	.	.	.	.
12B-/J	.	.	.	.	.	.	.	.
8BB-/L	4B-/	.	4D\	.	4ff\	.	4aa-\	.
8B-/J	.	.	.	.	.	.	.	.
=35	=35-	=35	=35	=35	=35	=35	=35	=35
12E-/L	2g\	.	4E-\	.	2ee-\	.	2gg\	.
12G/	.	.	.	.	.	.	.	.
12B-/J	.	.	.	.	.	.	.	.
12E-/L	.	.	4r	.	.	.	.	.
12G/	.	.	.	.	.	.	.	.
12B-/J	.	.	.	.	.	.	.	.
12E-/L	4f\	.	4D\	.	4ff\	.	4aa-\	.
12G/	.	.	.	.	.	.	.	.
12B-/J	.	.	.	.	.	.	.	.
=36	=36	=36	=36	=36	=36	=36	=36	=36
12E-/L	2e-\	.	4E-\	.	2gg\	.	2bb-\	.
12G/	.	.	.	.	.	.	.	.
12B-/J	.	.	.	.	.	.	.	.
12E-/L	.	.	4r	.	.	.	.	.
12G/	.	.	.	.	.	.	.	.
12B-/J	.	.	.	.	.	.	.	.
8BB-/L	4B-/	.	4D\	.	4ff\	.	4aa-\	.
8B-/J	.	.	.	.	.	.	.	.
=37	=37	=37	=37	=37	=37	=37	=37	=37
12E-/L	4e-\	.	8.E-\L	.	4ee-\	.	4gg\	.
12G/	.	.	.	.	.	.	.	.
12B-/J	.	.	.	.	.	.	.	.
.	.	.	16G\Jk	.	.	.	.	.
12e-/L	4r	.	4B-\	.	4g/	.	4ee-\	.
12B-/	.	.	.	.	.	.	.	.
12G/J	.	.	.	.	.	.	.	.
!LO:LB:g=original	!	!	!	!	!	!	!	!
8B-/L	4f\	.	4BB-/	.	4a-/	.	4dd\	.
8BB-/J	.	.	.	.	.	.	.	.
=38	=38	=38	=38	=38	=38	=38	=38	=38
.	.	.	.	.	.	.	8qqcc/	.
4E-/	4e-\	.	4E-\	.	4g/	.	4b-\	.
!	!	!	!LO:TX:b:i:t=Menuetto Da Capo	!	!LO:TX:b:i:t=Menuet Da Capo	!	!	!
!LO:TX:b:i:t=Menuetto Da Capo	!LO:TX:b:i:t=Menuet Da Capo	!	!LO:TX:a:t=10	!	!LO:TX:a:t=10	!	!LO:TX:b:i:t=Menuetto\nDa Capo	!
4r	4r	.	4r	.	4r	.	4r	.
=:|!	=:|!	=:|!	=:|!	=:|!	=:|!	=:|!	=:|!	=:|!
*-	*-	*-	*-	*-	*-	*-	*-	*-
!!!system-decoration: [(g1)][(g2)]
!!!RDF**kern: > = above
!!!RDF**kern: < = below
!!!RDF**kern: | = vertical stroke
!!!ENC: Andrzej Kubiczek
!!!END: 2021-06-29
!!!ENC: Anastazja Marusiak
!!!END: 2021-06-27
